src/svg/social-tumbler.svg

<svg version="1.2" baseProfile="tiny" xmlns="http://www.w3.org/2000/svg" width="24" height="24" viewBox="0 0 24 24"><path d="M15.527 17.921v-2.066c-.669.448-1.32.67-1.952.67-.298 0-.631-.094-1.004-.277-.223-.151-.354-.317-.393-.503-.11-.224-.178-.708-.178-1.454v-3.291h3v-2h-3v-3.356h-1.772c-.149.782-.298 1.338-.448 1.673-.184.41-.482.782-.891 1.116-.411.337-.837.577-1.285.725v1.842h1.396v4.521c0 .52.073.964.223 1.337.111.298.334.595.671.893.259.262.631.484 1.115.67.595.15 1.114.223 1.562.223.52 0 1.004-.056 1.45-.167.521-.112 1.023-.298 1.506-.556"/></svg>

<?xml version="1.0" encoding="iso-8859-1"?>
<!-- Generator: Adobe Illustrator 16.2.1, SVG Export Plug-In . SVG Version: 6.00 Build 0)  -->
<svg version="1.2" baseProfile="tiny" id="Layer_1" xmlns="http://www.w3.org/2000/svg" xmlns:xlink="http://www.w3.org/1999/xlink"
	 x="0px" y="0px" width="24px" height="24px" viewBox="0 0 24 24" xml:space="preserve">
<g>
	<g>
		<path d="M15.527,17.921v-2.066c-0.669,0.448-1.32,0.67-1.952,0.67c-0.298,0-0.631-0.094-1.004-0.277
			c-0.223-0.151-0.354-0.317-0.393-0.503C12.068,15.521,12,15.037,12,14.291V11h3V9h-3V5.644h-1.772
			C10.079,6.426,9.93,6.982,9.78,7.317C9.596,7.727,9.298,8.099,8.889,8.433C8.478,8.77,8.052,9.01,7.604,9.158V11H9v4.521
			c0,0.52,0.073,0.964,0.223,1.337c0.111,0.298,0.334,0.595,0.671,0.893c0.259,0.262,0.631,0.484,1.115,0.67
			c0.595,0.15,1.114,0.223,1.562,0.223c0.52,0,1.004-0.056,1.45-0.167C14.542,18.365,15.044,18.179,15.527,17.921"/>
	</g>
</g>
</svg>
